img/svg/icon-font/file-attach.svg

<svg width="22" height="22" viewBox="0 0 22 22" fill="none" xmlns="http://www.w3.org/2000/svg">
<path d="M17.999 14.2656V4.76953C17.999 3.82187 17.2281 3.05078 16.2803 3.05078H10.8711V9.19531C10.8711 10.617 9.71463 11.7734 8.29297 11.7734C6.87131 11.7734 5.71484 10.617 5.71484 9.19531V5.5C5.71484 5.02533 6.09955 4.64062 6.57422 4.64062C7.04889 4.64062 7.43359 5.02533 7.43359 5.5V9.19531C7.43359 9.66914 7.81914 10.0547 8.29297 10.0547C8.7668 10.0547 9.15234 9.66914 9.15234 9.19531V2.57812C9.15234 2.10429 8.7668 1.71875 8.29297 1.71875C7.89635 1.71875 7.54404 1.99855 7.45541 2.38393C7.35907 2.80338 6.9705 3.07898 6.55408 3.04742C6.53242 3.0491 6.5106 3.05078 6.48828 3.05078H5.71484C4.76718 3.05078 3.99609 3.82187 3.99609 4.76953V18.5625C3.99609 19.5102 4.76718 20.2812 5.71484 20.2812H16.2805C17.2281 20.2812 17.9992 19.5102 17.9992 18.5625C17.9992 18.0878 18.3839 17.7031 18.8586 17.7031C19.3331 17.7031 19.718 18.0878 19.718 18.5625C19.718 20.458 18.1758 22 16.2805 22H5.71484C3.81935 22 2.27734 20.458 2.27734 18.5625V4.76953C2.27734 2.87404 3.81935 1.33203 5.71484 1.33203H6.03409C6.47687 0.523178 7.32886 0 8.29297 0C9.26279 0 10.1089 0.538452 10.549 1.33203H16.2803C18.1758 1.33203 19.7178 2.87404 19.7178 4.76953V14.2656C19.7178 14.7403 19.3331 15.125 18.8584 15.125C18.3839 15.125 17.999 14.7403 17.999 14.2656ZM6.57422 16.8438C6.09955 16.8438 5.71484 17.2285 5.71484 17.7031C5.71484 18.1778 6.09955 18.5625 6.57422 18.5625H12.8047C13.2794 18.5625 13.6641 18.1778 13.6641 17.7031C13.6641 17.2285 13.2794 16.8438 12.8047 16.8438H6.57422ZM16.2422 14.3086C16.2422 13.8339 15.8575 13.4492 15.3828 13.4492H6.57422C6.09955 13.4492 5.71484 13.8339 5.71484 14.3086C5.71484 14.7833 6.09955 15.168 6.57422 15.168H15.3828C15.8575 15.168 16.2422 14.7833 16.2422 14.3086ZM15.3828 10.0977H13.4062C12.9316 10.0977 12.5469 10.4824 12.5469 10.957C12.5469 11.4317 12.9316 11.8164 13.4062 11.8164H15.3828C15.8575 11.8164 16.2422 11.4317 16.2422 10.957C16.2422 10.4824 15.8575 10.0977 15.3828 10.0977ZM15.3828 6.70312H13.4062C12.9316 6.70312 12.5469 7.08783 12.5469 7.5625C12.5469 8.03717 12.9316 8.42188 13.4062 8.42188H15.3828C15.8575 8.42188 16.2422 8.03717 16.2422 7.5625C16.2422 7.08783 15.8575 6.70312 15.3828 6.70312Z" fill="#4C51CB"/>
</svg>

<svg width="22" height="22" fill="none" xmlns="http://www.w3.org/2000/svg"><path d="M17.999 14.266V4.77a1.72 1.72 0 00-1.719-1.72h-5.409v6.145a2.58 2.58 0 01-2.578 2.578 2.58 2.58 0 01-2.578-2.578V5.5a.86.86 0 111.719 0v3.695a.86.86 0 001.718 0V2.578a.86.86 0 00-1.697-.194.859.859 0 01-.9.663.846.846 0 01-.067.004h-.773A1.72 1.72 0 003.996 4.77v13.793a1.72 1.72 0 001.719 1.718H16.28a1.72 1.72 0 001.718-1.718.86.86 0 111.719 0A3.441 3.441 0 0116.28 22H5.716a3.441 3.441 0 01-3.438-3.438V4.77a3.441 3.441 0 013.438-3.438h.32a2.58 2.58 0 014.515 0h5.73a3.441 3.441 0 013.438 3.438v9.496a.86.86 0 11-1.719 0zM6.574 16.844a.86.86 0 100 1.718h6.23a.86.86 0 100-1.718h-6.23zm9.668-2.535a.86.86 0 00-.86-.86H6.575a.86.86 0 100 1.719h8.809a.86.86 0 00.86-.86zm-.86-4.211h-1.976a.86.86 0 100 1.718h1.977a.86.86 0 100-1.718zm0-3.395h-1.976a.86.86 0 100 1.719h1.977a.86.86 0 100-1.719z" fill="#4C51CB"/></svg>
